icons/svg/accommodation/apartment.svg

<?xml version="1.0" encoding="UTF-8" standalone="no"?>
<!-- Created with Inkscape (http://www.inkscape.org/) -->

<svg
   xmlns:dc="http://purl.org/dc/elements/1.1/"
   xmlns:cc="http://creativecommons.org/ns#"
   xmlns:rdf="http://www.w3.org/1999/02/22-rdf-syntax-ns#"
   xmlns:svg="http://www.w3.org/2000/svg"
   xmlns="http://www.w3.org/2000/svg"
   xmlns:sodipodi="http://sodipodi.sourceforge.net/DTD/sodipodi-0.dtd"
   xmlns:inkscape="http://www.inkscape.org/namespaces/inkscape"
   version="1.0"
   width="580"
   height="580"
   id="svg2"
   sodipodi:version="0.32"
   inkscape:version="0.48.4 r9939"
   sodipodi:docname="apartment.svg"
   inkscape:output_extension="org.inkscape.output.svg.inkscape">
  <metadata
     id="metadata2975">
    <rdf:RDF>
      <cc:Work
         rdf:about="">
        <dc:format>image/svg+xml</dc:format>
        <dc:type
           rdf:resource="http://purl.org/dc/dcmitype/StillImage" />
        <cc:license
           rdf:resource="http://web.resource.org/cc/PublicDomain" />
        <dc:language>en</dc:language>
        <dc:title></dc:title>
      </cc:Work>
    </rdf:RDF>
  </metadata>
  <sodipodi:namedview
     inkscape:window-height="739"
     inkscape:window-width="1324"
     inkscape:pageshadow="2"
     inkscape:pageopacity="0.0"
     guidetolerance="10.0"
     gridtolerance="10.0"
     objecttolerance="10.0"
     borderopacity="1.0"
     bordercolor="#666666"
     pagecolor="#ffffff"
     id="base"
     inkscape:zoom="0.46083856"
     inkscape:cx="176.9055"
     inkscape:cy="187.16839"
     inkscape:window-x="42"
     inkscape:window-y="0"
     inkscape:current-layer="svg2"
     showgrid="false"
     inkscape:window-maximized="1" />
  <defs
     id="defs4">
    <inkscape:perspective
       sodipodi:type="inkscape:persp3d"
       inkscape:vp_x="0 : 290 : 1"
       inkscape:vp_y="0 : 1000 : 0"
       inkscape:vp_z="580 : 290 : 1"
       inkscape:persp3d-origin="290 : 193.33333 : 1"
       id="perspective2441" />
    <inkscape:perspective
       id="perspective3452"
       inkscape:persp3d-origin="30 : 20 : 1"
       inkscape:vp_z="60 : 30 : 1"
       inkscape:vp_y="0 : 1000 : 0"
       inkscape:vp_x="0 : 30 : 1"
       sodipodi:type="inkscape:persp3d" />
    <symbol
       viewBox="244.5 110 489 219.9"
       id="symbol-university">
      <path
         id="path4460"
         d="M79,43l57,119c0,0,21-96,104-96s124,106,124,106l43-133l82-17L0,17L79,43z" />
      <path
         id="path4462"
         d="M94,176l-21,39"
         stroke-width="20"
         stroke="#000000"
         fill="none" />
      <path
         id="path4464"
         d="M300,19c0,10.5-22.6,19-50.5,19S199,29.5,199,19s22.6-19,50.5-19S300,8.5,300,19z" />
      <path
         id="path4466"
         d="M112,216l-16-38L64,88c0,0-9-8-4-35s16-24,16-24"
         stroke-width="20"
         stroke="#000000"
         ill="none" />
    </symbol>
    <inkscape:perspective
       id="perspective4471"
       inkscape:persp3d-origin="372.04724 : 350.78739 : 1"
       inkscape:vp_z="744.09448 : 526.18109 : 1"
       inkscape:vp_y="0 : 1000 : 0"
       inkscape:vp_x="0 : 526.18109 : 1"
       sodipodi:type="inkscape:persp3d" />
    <inkscape:perspective
       id="perspective4668"
       inkscape:persp3d-origin="6 : 4 : 1"
       inkscape:vp_z="12 : 6 : 1"
       inkscape:vp_y="0 : 1000 : 0"
       inkscape:vp_x="0 : 6 : 1"
       sodipodi:type="inkscape:persp3d" />
    <inkscape:perspective
       id="perspective4904"
       inkscape:persp3d-origin="16 : 10.666667 : 1"
       inkscape:vp_z="32 : 16 : 1"
       inkscape:vp_y="0 : 1000 : 0"
       inkscape:vp_x="0 : 16 : 1"
       sodipodi:type="inkscape:persp3d" />
  </defs>
  <g
     id="g1327">
    <path
       d="M 66.275,1.768 C 24.94,1.768 1.704,23.139 1.704,66.804 L 1.704,516.927 C 1.704,557.771 22.599,579.156 63.896,579.156 L 515.92,579.156 C 557.227,579.156 578.149,558.841 578.149,516.927 L 578.149,66.804 C 578.149,24.203 557.227,1.768 514.628,1.768 C 514.624,1.768 66.133,1.625 66.275,1.768 z "
       style="fill:#111;stroke:#eee;stroke-width:3.40799999"
       id="path1329" />
  </g>
  <path
     style="fill:#ffffff;fill-opacity:1;fill-rule:evenodd;stroke:#ffffff;stroke-width:35.82899857;stroke-linecap:round;stroke-linejoin:miter;stroke-miterlimit:4;stroke-opacity:1;stroke-dasharray:none"
     d="M 47.545774,272.59912 44.346778,522.12088"
     id="path2157"
     inkscape:connector-curvature="0" />
  <path
     style="fill:#ffffff;fill-opacity:1;fill-rule:evenodd;stroke:#ffffff;stroke-width:35.82876587;stroke-linecap:butt;stroke-linejoin:miter;stroke-miterlimit:4;stroke-opacity:1;stroke-dasharray:none"
     d="m 50.744772,429.34997 479.849548,3.19899"
     id="path2159"
     inkscape:connector-curvature="0" />
  <path
     style="fill:#ffffff;fill-opacity:1;fill-rule:evenodd;stroke:#ffffff;stroke-width:35.82899857;stroke-linecap:round;stroke-linejoin:miter;stroke-miterlimit:4;stroke-opacity:1;stroke-dasharray:none"
     d="m 533.79332,512.52389 3.19899,-163.14885"
     id="path2161"
     inkscape:connector-curvature="0" />
  <rect
     style="fill:#ffffff;fill-opacity:1;stroke:#ffffff;stroke-width:41.20307922;stroke-miterlimit:4;stroke-opacity:1;stroke-dasharray:none"
     id="rect2163"
     width="252.72075"
     height="44.785957"
     x="233.09178"
     y="338.17859"
     ry="22.392979" />
  <path
     sodipodi:type="arc"
     style="fill:#ffffff;fill-opacity:1;stroke:#ffffff;stroke-width:2.29999995;stroke-miterlimit:4;stroke-opacity:1;stroke-dasharray:none"
     id="path2167"
     sodipodi:cx="7.7678571"
     sodipodi:cy="16.017857"
     sodipodi:rx="1.5178572"
     sodipodi:ry="1.3392857"
     d="m 9.2857143,16.017857 a 1.5178572,1.3392857 0 1 1 -3.0357144,0 1.5178572,1.3392857 0 1 1 3.0357144,0 z"
     transform="matrix(22.993274,0,0,23.073314,-16.698545,-91.11131)" />
  <rect
     style="fill:#ffffff;fill-opacity:1;stroke:#ffffff;stroke-width:35.82876587;stroke-miterlimit:4;stroke-opacity:1;stroke-dasharray:none"
     id="rect2169"
     width="97.569405"
     height="7.9974923"
     x="90.732231"
     y="373.36755"
     ry="3.9987462" />
  <path
     style="font-size:medium;font-style:normal;font-variant:normal;font-weight:normal;font-stretch:normal;text-indent:0;text-align:start;text-decoration:none;line-height:normal;letter-spacing:normal;word-spacing:normal;text-transform:none;direction:ltr;block-progression:tb;writing-mode:lr-tb;text-anchor:start;baseline-shift:baseline;opacity:0.35096154;color:#000000;fill:#ffffff;fill-opacity:1;fill-rule:evenodd;stroke:#ffffff;stroke-width:1.06959641;stroke-linecap:butt;stroke-linejoin:miter;stroke-miterlimit:4;stroke-opacity:1;stroke-dasharray:none;stroke-dashoffset:0;marker:none;visibility:visible;display:inline;overflow:visible;enable-background:accumulate;font-family:Sans;-inkscape-font-specification:Sans"
     d="m 270,34.5625 c -3.48415,-0.09947 -6.9915,0.984015 -9.8125,3.03125 l -87.625,63.71875 c -4.05203,2.9464 -6.5689,7.89625 -6.5625,12.90625 l 0,61.96875 c 29.05004,0.0361 57.20276,12.61611 76.53125,33.59375 l 3.125,0 0,3.5625 c 12.22751,14.60458 20.33529,32.83645 21.9375,53.46875 l 199.78125,0 c 25.91396,0 49.27934,11.20166 65.6875,28.9375 l 15.28125,0.28125 0,-181.8125 c 0.006,-5.01 -2.51047,-9.95985 -6.5625,-12.90625 l -87.625,-63.71875 c -2.57649,-1.869753 -5.72409,-2.941044 -8.90625,-3.03125 -3.49447,-0.106357 -7.01444,0.97757 -9.84375,3.03125 l -78.25,56.90625 -78.25,-56.90625 C 276.32976,35.723997 273.18216,34.652706 270,34.5625 z m -56.21875,95.5625 31.875,0 0,31.875 -31.875,0 z m 79.65625,0 31.875,0 0,31.875 -31.875,0 z m 95.59375,0 31.84375,0 0,31.875 -31.84375,0 z m 79.65625,0 31.84375,0 0,31.875 -31.84375,0 z m -175.25,79.65625 31.875,0 0,31.875 -31.875,0 z m 95.59375,0 31.84375,0 0,31.875 -31.84375,0 z m 79.65625,0 31.84375,0 0,31.875 -31.84375,0 z"
     id="path3"
     inkscape:connector-curvature="0"
     sodipodi:nodetypes="cccccccccsccccccccccccccccccccccccccccccccccccccccccccc" />
  <path
     style="font-size:medium;font-style:normal;font-variant:normal;font-weight:normal;font-stretch:normal;text-indent:0;text-align:start;text-decoration:none;line-height:normal;letter-spacing:normal;word-spacing:normal;text-transform:none;direction:ltr;block-progression:tb;writing-mode:lr-tb;text-anchor:start;baseline-shift:baseline;color:#000000;fill:none;fill-opacity:1;fill-rule:evenodd;stroke:none;stroke-width:35.82899857000000310;marker:none;visibility:visible;display:inline;overflow:visible;enable-background:accumulate;font-family:Sans;-inkscape-font-specification:Sans"
     d="m 161.90625,229.65625 c -27.85023,0 -52.8125,20.80737 -52.8125,48.8125 0,28.00513 24.96227,48.8125 52.8125,48.8125 27.85023,0 52.8125,-20.80737 52.8125,-48.8125 0,-28.00513 -24.96227,-48.8125 -52.8125,-48.8125 z m 0,35.8125 c 10.69981,0 17,6.87199 17,13 0,6.12801 -6.30019,13 -17,13 -10.69981,0 -17,-6.87199 -17,-13 0,-6.12801 6.30019,-13 17,-13 z M 29.625,272.375 l -3.1875,249.53125 35.8125,0.4375 0.96875,-75 453.875,3.03125 -1.21875,61.8125 35.8125,0.6875 3.21875,-163.15625 -35.8125,-0.6875 L 517.8125,414.5625 63.65625,411.53125 65.4375,272.8125 29.625,272.375 z M 255.5,320.28125 c -22.00316,0 -40.3125,18.248 -40.3125,40.28125 0,22.03325 18.27925,40.3125 40.3125,40.3125 l 207.90625,0 c 22.03325,0 40.3125,-18.27925 40.3125,-40.3125 0,-22.03325 -18.30934,-40.28125 -40.3125,-40.28125 l -207.90625,0 z m -160.78125,35.1875 c -11.836803,0 -21.90625,10.06944 -21.90625,21.90625 0,11.83681 10.069447,21.90625 21.90625,21.90625 l 89.59375,0 c 11.83679,0 21.90625,-10.06946 21.90625,-21.90625 0,-11.83679 -10.06946,-21.90625 -21.90625,-21.90625 l -89.59375,0 z m 160.78125,0.625 207.90625,0 c 2.80826,0 4.5,1.69058 4.5,4.46875 0,2.77817 -1.72183,4.5 -4.5,4.5 l -207.90625,0 c -2.77817,0 -4.5,-1.72183 -4.5,-4.5 0,-2.77817 1.69174,-4.46875 4.5,-4.46875 z"
     id="path2157-7"
     inkscape:connector-curvature="0" />
  <path
     style="fill:#b24848;fill-opacity:1;fill-rule:evenodd;stroke:none;stroke-width:1;stroke-linecap:round;stroke-linejoin:miter;stroke-miterlimit:4;stroke-opacity:1;stroke-dasharray:none"
     d="m 401.35355,793.19326 -3.199,249.52174"
     id="path2157-1"
     inkscape:connector-curvature="0" />
  <path
     style="fill:#b24848;fill-opacity:1;fill-rule:evenodd;stroke:none;stroke-width:1;stroke-linecap:butt;stroke-linejoin:miter;stroke-miterlimit:4;stroke-opacity:1;stroke-dasharray:none"
     d="m 404.55255,949.9441 479.84954,3.19899"
     id="path2159-5"
     inkscape:connector-curvature="0" />
  <path
     style="fill:#b24848;fill-opacity:1;fill-rule:evenodd;stroke:none;stroke-width:1;stroke-linecap:round;stroke-linejoin:miter;stroke-miterlimit:4;stroke-opacity:1;stroke-dasharray:none"
     d="m 887.60109,1033.118 3.19899,-163.14883"
     id="path2161-1"
     inkscape:connector-curvature="0" />
</svg>

<svg width="580" height="580" viewBox="0 0 580 580" fill="none" xmlns="http://www.w3.org/2000/svg">
<g clip-path="url(#clip0)">
<path d="M66.275 1.76799C24.94 1.76799 1.70401 23.139 1.70401 66.804V516.927C1.70401 557.771 22.599 579.156 63.896 579.156H515.92C557.227 579.156 578.149 558.841 578.149 516.927V66.804C578.149 24.203 557.227 1.76799 514.628 1.76799C514.624 1.76799 66.133 1.62499 66.275 1.76799Z" fill="#111111" stroke="#EEEEEE" stroke-width="3.408"/>
<path fill-rule="evenodd" clip-rule="evenodd" d="M47.5458 272.599L44.3468 522.121Z" fill="white"/>
<path d="M47.5458 272.599L44.3468 522.121" stroke="white" stroke-width="35.829" stroke-linecap="round"/>
<path fill-rule="evenodd" clip-rule="evenodd" d="M50.7448 429.35L530.594 432.549Z" fill="white"/>
<path d="M50.7448 429.35L530.594 432.549" stroke="white" stroke-width="35.8288"/>
<path fill-rule="evenodd" clip-rule="evenodd" d="M533.793 512.524L536.992 349.375Z" fill="white"/>
<path d="M533.793 512.524L536.992 349.375" stroke="white" stroke-width="35.829" stroke-linecap="round"/>
<path d="M463.42 338.179H255.485C243.117 338.179 233.092 348.204 233.092 360.572C233.092 372.939 243.117 382.965 255.485 382.965H463.42C475.787 382.965 485.813 372.939 485.813 360.572C485.813 348.204 475.787 338.179 463.42 338.179Z" fill="white" stroke="white" stroke-width="41.2031"/>
<path d="M196.81 278.474C196.81 286.669 193.133 294.529 186.588 300.325C180.043 306.12 171.166 309.376 161.91 309.376C152.654 309.376 143.777 306.12 137.232 300.325C130.686 294.529 127.009 286.669 127.009 278.474C127.009 270.278 130.686 262.418 137.232 256.623C143.777 250.828 152.654 247.572 161.91 247.572C171.166 247.572 180.043 250.828 186.588 256.623C193.133 262.418 196.81 270.278 196.81 278.474V278.474Z" fill="white" stroke="white" stroke-width="52.9765"/>
<path d="M184.303 373.368H94.731C92.5225 373.368 90.7322 375.158 90.7322 377.366C90.7322 379.575 92.5225 381.365 94.731 381.365H184.303C186.511 381.365 188.302 379.575 188.302 377.366C188.302 375.158 186.511 373.368 184.303 373.368Z" fill="white" stroke="white" stroke-width="35.8288"/>
<path opacity="0.350962" fill-rule="evenodd" clip-rule="evenodd" d="M270 34.5625C266.516 34.463 263.009 35.5465 260.188 37.5938L172.563 101.313C168.51 104.259 165.994 109.209 166 114.219V176.188C195.05 176.224 223.203 188.804 242.531 209.781H245.656V213.344C257.884 227.948 265.992 246.18 267.594 266.812H467.375C493.289 266.812 516.654 278.014 533.062 295.75L548.344 296.031V114.219C548.35 109.209 545.833 104.259 541.781 101.313L454.156 37.5938C451.58 35.724 448.432 34.6527 445.25 34.5625C441.756 34.4561 438.236 35.5401 435.406 37.5938L357.156 94.5L278.906 37.5938C276.33 35.724 273.182 34.6527 270 34.5625ZM213.781 130.125H245.656V162H213.781V130.125ZM293.438 130.125H325.313V162H293.438V130.125ZM389.031 130.125H420.875V162H389.031V130.125ZM468.688 130.125H500.531V162H468.688V130.125ZM293.438 209.781H325.313V241.656H293.438V209.781ZM389.031 209.781H420.875V241.656H389.031V209.781ZM468.688 209.781H500.531V241.656H468.688V209.781Z" fill="white" stroke="white" stroke-width="1.0696"/>
</g>
<defs>
<clipPath id="clip0">
<rect width="580" height="580" fill="white"/>
</clipPath>
</defs>
</svg>
